tools/download-figma-icons/icons/solid/sharing-charging-station.svg

<svg width="24" height="24" viewBox="0 0 24 24" fill="none" xmlns="http://www.w3.org/2000/svg">
<path fill-rule="evenodd" clip-rule="evenodd" d="M14.25 2.25C14.25 3.225 13.62 4.05 12.75 4.365V6.75C12.75 7.1625 12.4125 7.5 12 7.5C11.5875 7.5 11.25 7.1625 11.25 6.75V4.365C10.38 4.05 9.75002 3.225 9.75002 2.25C9.75002 1.0125 10.7625 0 12 0C13.2375 0 14.25 1.0125 14.25 2.25ZM22.5 5.865C23.37 5.55 24 4.725 24 3.75C24 2.5125 22.9875 1.5 21.75 1.5C20.5125 1.5 19.5 2.5125 19.5 3.75C19.5 4.725 20.13 5.55 21 5.865V7.095L19.0875 8.3775C18.7425 8.6025 18.645 9.0675 18.8775 9.4125C19.02 9.63 19.26 9.75 19.5 9.75C19.6425 9.75 19.785 9.7125 19.9125 9.6225L22.1625 8.1225C22.3725 7.9875 22.5 7.7475 22.5 7.5V5.865ZM10.8521 19.8823L12.6453 16.8823C12.7803 16.6498 12.7871 16.3656 12.6528 16.1323C12.5178 15.8931 12.2703 15.7498 12.0003 15.7498H11.0696L12.1878 13.8823C12.3978 13.5298 12.2853 13.0648 11.9253 12.8548C11.5721 12.6456 11.1071 12.7573 10.8978 13.1173L9.10459 16.1173C8.97034 16.3498 8.96284 16.6348 9.09784 16.8673C9.23209 17.1073 9.47959 17.2498 9.75034 17.2498H10.6803L9.56284 19.1173C9.35209 19.4698 9.46534 19.9348 9.82458 20.1456C9.94459 20.2123 10.0721 20.2498 10.2078 20.2498C10.4628 20.2498 10.7103 20.1223 10.8521 19.8823ZM17.7596 10.6948L20.7596 13.4473C20.9103 13.5898 21.0003 13.7923 21.0003 14.0023V20.9998C21.0003 22.238 19.9878 23.2498 18.7503 23.2498C17.5121 23.2498 16.5071 22.2448 16.5003 21.0148V20.9998C16.5003 20.798 16.3353 20.6248 16.1253 20.6248H15.7503V23.2498C15.7503 23.6623 15.4121 23.9998 15.0003 23.9998H6.75032C6.33782 23.9998 6.00032 23.6623 6.00032 23.2498V11.1898C6.00032 9.9823 6.98207 8.9998 8.19032 8.9998H13.5603C14.7678 8.9998 15.7503 9.9823 15.7503 11.1898V19.1248H16.1253C17.1528 19.1248 17.9928 19.958 18.0003 20.9855V20.9998C18.0003 21.4123 18.3378 21.7498 18.7503 21.7498C19.1621 21.7498 19.5003 21.4123 19.5003 20.9998V15.7498C18.6753 15.7498 18.0003 14.9923 18.0003 14.0623V12.9523L16.7403 11.8048C16.4403 11.5205 16.4171 11.048 16.6946 10.7406C16.9796 10.4398 17.4521 10.4173 17.7596 10.6948ZM4.50009 9.7498C4.74009 9.7498 4.98009 9.6298 5.12259 9.4123C5.35509 9.0673 5.25759 8.6023 4.91259 8.3773L3.00009 7.0948V5.86555C3.87009 5.55055 4.50009 4.7248 4.50009 3.7498C4.50009 2.5123 3.48759 1.4998 2.25009 1.4998C1.01259 1.4998 8.93729e-05 2.5123 8.93729e-05 3.7498C8.93729e-05 4.7248 0.630089 5.55055 1.50009 5.86555V7.4998C1.50009 7.7473 1.62759 7.98805 1.83759 8.1223L4.08759 9.6223C4.21509 9.7123 4.35684 9.7498 4.50009 9.7498Z" fill="black"/>
</svg>

<svg width="24" height="24" viewBox="0 0 24 24" fill="none" xmlns="http://www.w3.org/2000/svg"><path fill-rule="evenodd" clip-rule="evenodd" d="M14.25 2.25c0 .975-.63 1.8-1.5 2.115V6.75c0 .412-.338.75-.75.75a.752.752 0 0 1-.75-.75V4.365a2.258 2.258 0 0 1-1.5-2.115A2.257 2.257 0 0 1 12 0a2.257 2.257 0 0 1 2.25 2.25Zm8.25 3.615c.87-.315 1.5-1.14 1.5-2.115a2.257 2.257 0 0 0-2.25-2.25 2.257 2.257 0 0 0-2.25 2.25c0 .975.63 1.8 1.5 2.115v1.23l-1.913 1.282a.74.74 0 0 0-.21 1.035.748.748 0 0 0 .623.338.704.704 0 0 0 .413-.127l2.25-1.5A.746.746 0 0 0 22.5 7.5V5.865ZM10.852 19.882l1.793-3a.747.747 0 0 0 .008-.75.746.746 0 0 0-.653-.382h-.93l1.118-1.868a.748.748 0 0 0-.263-1.027.749.749 0 0 0-1.027.262l-1.793 3a.747.747 0 0 0-.007.75c.134.24.382.383.652.383h.93l-1.117 1.867a.75.75 0 1 0 1.29.765Zm6.908-9.187 3 2.752a.77.77 0 0 1 .24.555V21a2.256 2.256 0 0 1-2.25 2.25 2.253 2.253 0 0 1-2.25-2.235V21a.377.377 0 0 0-.375-.375h-.375v2.625c0 .412-.338.75-.75.75H6.75a.752.752 0 0 1-.75-.75V11.19C6 9.982 6.982 9 8.19 9h5.37c1.208 0 2.19.982 2.19 2.19v7.935h.375c1.028 0 1.868.833 1.875 1.86V21c0 .412.338.75.75.75s.75-.338.75-.75v-5.25c-.825 0-1.5-.758-1.5-1.688v-1.11l-1.26-1.147a.763.763 0 0 1-.045-1.064.763.763 0 0 1 1.065-.046ZM4.5 9.75c.24 0 .48-.12.623-.338a.74.74 0 0 0-.21-1.035L3 7.095v-1.23c.87-.314 1.5-1.14 1.5-2.115A2.257 2.257 0 0 0 2.25 1.5 2.257 2.257 0 0 0 0 3.75c0 .975.63 1.8 1.5 2.116V7.5c0 .247.128.488.338.622l2.25 1.5a.7.7 0 0 0 .412.128Z" fill="currentColor"/></svg>
